icons/Tauri-Dark.svg

<svg xmlns="http://www.w3.org/2000/svg" width="256" height="256" fill="none" viewBox="0 0 256 256"><rect width="256" height="256" fill="#242938" rx="60"/><path fill="#FFC131" d="M164.9 99.4198C164.9 104.72 162.813 109.802 159.096 113.55C155.38 117.298 150.34 119.403 145.085 119.403C139.829 119.403 134.789 117.298 131.073 113.55C127.357 109.802 125.269 104.72 125.269 99.4198C125.269 94.1199 127.357 89.0371 131.073 85.2895C134.789 81.5419 139.829 79.4365 145.085 79.4365C150.34 79.4365 155.38 81.5419 159.096 85.2895C162.813 89.0371 164.9 94.1199 164.9 99.4198V99.4198Z"/><path fill="#24C8DB" d="M111.759 136.661C100.815 136.661 91.9429 145.608 91.9429 156.644C91.9429 167.681 100.815 176.628 111.759 176.628C122.702 176.628 131.574 167.681 131.574 156.644C131.574 145.608 122.702 136.661 111.759 136.661Z"/><path fill="#FFC131" fill-rule="evenodd" d="M186.157 163.457C178.194 168.649 169.333 172.285 160.037 174.175C162.731 166.429 163.624 158.163 162.649 150.014C170.531 147.235 177.652 142.623 183.436 136.55C189.221 130.478 193.505 123.116 195.941 115.063C198.377 107.009 198.898 98.4898 197.46 90.1955C196.022 81.9012 192.667 74.0652 187.665 67.3228C182.664 60.5804 176.157 55.1214 168.673 51.3882C161.189 47.655 152.938 45.7527 144.589 45.8355C136.24 45.9183 128.028 47.9839 120.618 51.8648C113.208 55.7458 106.81 61.3328 101.941 68.1731C91.8585 69.3171 82.0472 72.2055 72.938 76.7114C76.539 64.9947 82.8882 54.3263 91.4473 45.6104C100.006 36.8946 110.523 30.3884 122.106 26.6432C133.689 22.898 145.997 22.0244 157.986 24.0963C169.975 26.1682 181.291 31.1246 190.977 38.5453C200.662 45.966 208.431 55.6323 213.624 66.7248C218.817 77.8173 221.282 90.0089 220.809 102.266C220.336 114.524 216.939 126.485 210.907 137.137C204.875 147.789 196.385 156.818 186.157 163.457ZM73.8387 90.6089L92.3933 92.8797C92.8142 89.2662 93.5989 85.7054 94.7352 82.2522C87.3959 83.9729 80.3527 86.7895 73.8387 90.6089V90.6089Z" clip-rule="evenodd"/><path fill="#24C8DB" fill-rule="evenodd" d="M70.5959 92.6072C78.6076 87.3622 87.5318 83.6946 96.8967 81.7981C94.0639 89.5427 93.0466 97.8434 93.9243 106.05C86.0698 108.868 78.9828 113.51 73.2362 119.601C67.4897 125.692 63.2448 133.061 60.8445 141.113C58.4443 149.164 57.9561 157.672 59.4195 165.949C60.8828 174.225 64.2566 182.039 69.2682 188.758C74.2797 195.476 80.7885 200.912 88.2683 204.624C95.7482 208.337 103.989 210.223 112.326 210.13C120.662 210.037 128.859 207.967 136.256 204.088C143.652 200.209 150.04 194.629 154.903 187.8C164.979 186.685 174.791 183.827 183.905 179.353C180.295 191.057 173.942 201.712 165.384 210.416C156.825 219.12 146.313 225.616 134.737 229.355C123.162 233.094 110.863 233.965 98.883 231.895C86.9027 229.825 75.5933 224.875 65.9121 217.463C56.2309 210.052 48.4628 200.397 43.2655 189.316C38.0682 178.236 35.5946 166.056 36.0541 153.807C36.5136 141.558 39.8927 129.601 45.9053 118.948C51.9179 108.295 60.3871 99.26 70.5959 92.6072V92.6072ZM182.915 165.455L182.554 165.637L182.915 165.455Z" clip-rule="evenodd"/></svg>

<svg xmlns="http://www.w3.org/2000/svg" width="256" height="256" fill="none" viewBox="0 0 256 256"><rect width="256" height="256" fill="#242938" rx="60"/><path fill="#FFC131" d="M164.9 99.42a20 20 0 0 1-5.8 14.13 19.73 19.73 0 0 1-28.03 0 20.07 20.07 0 0 1 0-28.26 19.73 19.73 0 0 1 28.03 0 20 20 0 0 1 5.8 14.13"/><path fill="#24C8DB" d="M111.76 136.66a19.9 19.9 0 0 0-19.82 19.98 19.9 19.9 0 0 0 19.82 19.99 19.9 19.9 0 0 0 19.81-19.99 19.9 19.9 0 0 0-19.81-19.98"/><path fill="#FFC131" fill-rule="evenodd" d="M186.16 163.46a75 75 0 0 1-26.12 10.72 54 54 0 0 0 2.6-24.17 53 53 0 0 0 20.8-13.46 54 54 0 0 0 12.5-21.49 54 54 0 0 0-8.28-47.74c-5-6.74-11.5-12.2-18.99-15.93a52.8 52.8 0 0 0-48.05.47 53 53 0 0 0-18.68 16.31 88 88 0 0 0-29 8.54 76.4 76.4 0 0 1 18.5-31.1 75.6 75.6 0 0 1 30.67-18.97 75 75 0 0 1 68.87 11.9 76 76 0 0 1 22.64 28.18 76.9 76.9 0 0 1-2.71 70.42 76 76 0 0 1-24.75 26.32M73.84 90.6l18.55 2.27q.63-5.43 2.35-10.63a75 75 0 0 0-20.9 8.36" clip-rule="evenodd"/><path fill="#24C8DB" fill-rule="evenodd" d="M70.6 92.6a75 75 0 0 1 26.3-10.8 54 54 0 0 0-2.98 24.25 53 53 0 0 0-20.68 13.55 54 54 0 0 0-12.4 21.51 54 54 0 0 0 8.43 47.65 53 53 0 0 0 19 15.86 52.8 52.8 0 0 0 47.99-.53 53 53 0 0 0 18.64-16.29 88 88 0 0 0 29-8.45 76.4 76.4 0 0 1-18.52 31.07 75.6 75.6 0 0 1-30.64 18.94 75 75 0 0 1-68.83-11.9 76 76 0 0 1-22.64-28.14 76.9 76.9 0 0 1 2.64-70.37A76 76 0 0 1 70.6 92.6m112.32 72.86-.37.18z" clip-rule="evenodd"/></svg>
